TV/Source/Nova Sport 1 - Original.svg

<svg height="3.776839mm" viewBox="0 0 8.399991 3.7768388" width="8.399991mm" xmlns="http://www.w3.org/2000/svg" xmlns:xlink="http://www.w3.org/1999/xlink"><clipPath id="a"><path d="m610.299 638.537h23.811v10.705h-23.811z"/></clipPath><clipPath id="b"><path d="m610.299 636.378h23.811v15.024h-23.811z"/></clipPath><g clip-path="url(#b)" transform="matrix(.35277777 0 0 -.35277777 -215.29992 229.038498)"><path d="m610.299 638.537h23.811v10.706h-23.811z" fill="#181818"/></g><g clip-path="url(#a)" transform="matrix(.35277777 0 0 -.35277777 -215.29992 229.038498)"><g transform="translate(612.506 647.0529)"><path d="m0 0h .48v-.251c.133.177.344.288.599.288.458 0 .772-.332.772-.787v-1.152h-.481v1.067c0 .255-.184.436-.443.436-.258 0-.447-.181-.447-.436v-1.067h-.48z" fill="#fff"/></g><g transform="translate(615.6465 645.5532)"><path d="m0 0c .295 0 .521.236.521.55 0 .311-.226.547-.521.547s-.517-.236-.517-.547c0-.314.222-.55.517-.55m0 1.537c.576 0 1.016-.429 1.016-.987 0-.561-.44-.99-1.016-.99s-1.016.429-1.016.99c0 .558.44.987 1.016.987" fill="#fff"/></g><g transform="translate(616.6439 647.0529)"><path d="m0 0h .517l.525-1.4.528 1.4h.484l-.757-1.902h-.54z" fill="#fff"/></g><g transform="translate(619.7058 645.5532)"><path d="m0 0c .295 0 .521.236.521.55 0 .311-.226.547-.521.547s-.517-.236-.517-.547c0-.314.222-.55.517-.55m.521-.166c-.151-.17-.362-.274-.617-.274-.521 0-.92.429-.92.99 0 .558.399.987.92.987.255 0 .466-.104.617-.277v.24h.48v-1.903h-.48z" fill="#fff"/></g><g transform="translate(631.3282 641.5117)"><path d="m0 0v2.867l-1.561-.498v-.768l.691.152v-1.753h-.691v-.768h2.136v.768z" fill="#d81f41"/></g><g transform="translate(613.2653 641.8777)"><path d="m0 0c .056-.256.22-.389.532-.389.267 0 .436.102.436.282 0 .614-1.772.199-1.772 1.505 0 .63.579 1.1 1.311 1.1.747 0 1.249-.404 1.336-1.008l-.88-.179c-.057.266-.21.389-.487.389-.235 0-.379-.103-.379-.277 0-.563 1.772-.153 1.772-1.505 0-.63-.594-1.106-1.362-1.106-.773 0-1.311.42-1.388 1.014z" fill="#fff"/></g><g transform="translate(617.2791 642.6099)"><path d="m0 0c .297 0 .486.2.486.471 0 .277-.189.476-.486.476h-.712v-.947zm-1.582 1.715h1.582c.85 0 1.387-.532 1.387-1.254s-.537-1.229-1.387-1.229h-.712v-1.101h-.87z" fill="#fff"/></g><g transform="translate(620.8936 641.4886)"><path d="m0 0c .563 0 .993.456.993 1.045 0 .588-.43 1.044-.993 1.044s-.993-.456-.993-1.044c0-.589.43-1.045.993-1.045m0 2.888c1.07 0 1.894-.804 1.894-1.843 0-1.04-.824-1.844-1.894-1.844s-1.894.804-1.894 1.844c0 1.039.824 1.843 1.894 1.843" fill="#fff"/></g><g transform="translate(624.8868 642.7123)"><path d="m0 0c .261 0 .43.179.43.42 0 .246-.169.425-.43.425h-.717v-.845zm-.363-.794h-.354v-1.177h-.87v3.584h1.587c.814 0 1.331-.512 1.331-1.203 0-.502-.276-.907-.732-1.096l.835-1.285h-1.035z" fill="#fff"/></g><g transform="translate(627.4773 643.557)"><path d="m0 0h-1.049v.768h2.969v-.768h-1.05v-2.816h-.87z" fill="#fff"/></g></g></svg>

<?xml version="1.0" encoding="UTF-8" standalone="no"?>
<!-- Created with Inkscape (http://www.inkscape.org/) -->

<svg
   xmlns:dc="http://purl.org/dc/elements/1.1/"
   xmlns:cc="http://creativecommons.org/ns#"
   xmlns:rdf="http://www.w3.org/1999/02/22-rdf-syntax-ns#"
   xmlns:svg="http://www.w3.org/2000/svg"
   xmlns="http://www.w3.org/2000/svg"
   xmlns:sodipodi="http://sodipodi.sourceforge.net/DTD/sodipodi-0.dtd"
   xmlns:inkscape="http://www.inkscape.org/namespaces/inkscape"
   width="8.399991mm"
   height="3.7768388mm"
   viewBox="0 0 8.399991 3.7768388"
   version="1.1"
   id="svg49965"
   inkscape:version="0.92.0 r15299"
   sodipodi:docname="Nova Sport 1 - Original.svg">
  <defs
     id="defs49959">
    <clipPath
       clipPathUnits="userSpaceOnUse"
       id="clipPath2570">
      <path
         d="m 610.299,638.537 h 23.811 v 10.705 h -23.811 z"
         id="path2568"
         inkscape:connector-curvature="0" />
    </clipPath>
    <clipPath
       clipPathUnits="userSpaceOnUse"
       id="clipPath2560">
      <path
         d="m 610.299,636.378 h 23.811 v 15.024 h -23.811 z"
         id="path2558"
         inkscape:connector-curvature="0" />
    </clipPath>
  </defs>
  <sodipodi:namedview
     id="base"
     pagecolor="#ffffff"
     bordercolor="#666666"
     borderopacity="1.0"
     inkscape:pageopacity="0.0"
     inkscape:pageshadow="2"
     inkscape:zoom="7.9195959"
     inkscape:cx="20.795466"
     inkscape:cy="-1.298027"
     inkscape:document-units="mm"
     inkscape:current-layer="layer1"
     showgrid="false"
     fit-margin-top="0"
     fit-margin-left="0"
     fit-margin-right="0"
     fit-margin-bottom="0"
     inkscape:window-width="1920"
     inkscape:window-height="1017"
     inkscape:window-x="-8"
     inkscape:window-y="-8"
     inkscape:window-maximized="1" />
  <metadata
     id="metadata49962">
    <rdf:RDF>
      <cc:Work
         rdf:about="">
        <dc:format>image/svg+xml</dc:format>
        <dc:type
           rdf:resource="http://purl.org/dc/dcmitype/StillImage" />
        <dc:title></dc:title>
      </cc:Work>
    </rdf:RDF>
  </metadata>
  <g
     inkscape:label="Layer 1"
     inkscape:groupmode="layer"
     id="layer1"
     transform="translate(-75.175,-84.956822)">
    <g
       transform="matrix(0.35277777,0,0,-0.35277777,-140.12492,313.99532)"
       id="g2554">
      <g
         id="g2556"
         clip-path="url(#clipPath2560)">
        <path
           d="m 610.299,638.537 h 23.811 v 10.706 h -23.811 z"
           style="fill:#181818;fill-opacity:1;fill-rule:nonzero;stroke:none"
           id="path2562"
           inkscape:connector-curvature="0" />
      </g>
    </g>
    <g
       transform="matrix(0.35277777,0,0,-0.35277777,-140.12492,313.99532)"
       id="g2564">
      <g
         id="g2566"
         clip-path="url(#clipPath2570)">
        <g
           id="g2572"
           transform="translate(612.506,647.0529)">
          <path
             d="m 0,0 h 0.48 v -0.251 c 0.133,0.177 0.344,0.288 0.599,0.288 0.458,0 0.772,-0.332 0.772,-0.787 V -1.902 H 1.37 v 1.067 c 0,0.255 -0.184,0.436 -0.443,0.436 -0.258,0 -0.447,-0.181 -0.447,-0.436 V -1.902 H 0 Z"
             style="fill:#ffffff;fill-opacity:1;fill-rule:nonzero;stroke:none"
             id="path2574"
             inkscape:connector-curvature="0" />
        </g>
        <g
           id="g2576"
           transform="translate(615.6465,645.5532)">
          <path
             d="M 0,0 C 0.295,0 0.521,0.236 0.521,0.55 0.521,0.861 0.295,1.097 0,1.097 -0.295,1.097 -0.517,0.861 -0.517,0.55 -0.517,0.236 -0.295,0 0,0 m 0,1.537 c 0.576,0 1.016,-0.429 1.016,-0.987 0,-0.561 -0.44,-0.99 -1.016,-0.99 -0.576,0 -1.016,0.429 -1.016,0.99 0,0.558 0.44,0.987 1.016,0.987"
             style="fill:#ffffff;fill-opacity:1;fill-rule:nonzero;stroke:none"
             id="path2578"
             inkscape:connector-curvature="0" />
        </g>
        <g
           id="g2580"
           transform="translate(616.6439,647.0529)">
          <path
             d="M 0,0 H 0.517 L 1.042,-1.4 1.57,0 H 2.054 L 1.297,-1.902 h -0.54 z"
             style="fill:#ffffff;fill-opacity:1;fill-rule:nonzero;stroke:none"
             id="path2582"
             inkscape:connector-curvature="0" />
        </g>
        <g
           id="g2584"
           transform="translate(619.7058,645.5532)">
          <path
             d="M 0,0 C 0.295,0 0.521,0.236 0.521,0.55 0.521,0.861 0.295,1.097 0,1.097 -0.295,1.097 -0.517,0.861 -0.517,0.55 -0.517,0.236 -0.295,0 0,0 M 0.521,-0.166 C 0.37,-0.336 0.159,-0.44 -0.096,-0.44 c -0.521,0 -0.92,0.429 -0.92,0.99 0,0.558 0.399,0.987 0.92,0.987 0.255,0 0.466,-0.104 0.617,-0.277 V 1.5 h 0.48 v -1.903 h -0.48 z"
             style="fill:#ffffff;fill-opacity:1;fill-rule:nonzero;stroke:none"
             id="path2586"
             inkscape:connector-curvature="0" />
        </g>
        <g
           id="g2588"
           transform="translate(631.3282,641.5117)">
          <path
             d="M 0,0 V 2.867 L -1.561,2.369 V 1.601 L -0.87,1.753 V 0 H -1.561 V -0.768 H 0.575 V 0 Z"
             style="fill:#d81f41;fill-opacity:1;fill-rule:nonzero;stroke:none"
             id="path2590"
             inkscape:connector-curvature="0" />
        </g>
        <g
           id="g2592"
           transform="translate(613.2653,641.8777)">
          <path
             d="m 0,0 c 0.056,-0.256 0.22,-0.389 0.532,-0.389 0.267,0 0.436,0.102 0.436,0.282 0,0.614 -1.772,0.199 -1.772,1.505 0,0.63 0.579,1.1 1.311,1.1 0.747,0 1.249,-0.404 1.336,-1.008 L 0.963,1.311 C 0.906,1.577 0.753,1.7 0.476,1.7 0.241,1.7 0.097,1.597 0.097,1.423 c 0,-0.563 1.772,-0.153 1.772,-1.505 0,-0.63 -0.594,-1.106 -1.362,-1.106 -0.773,0 -1.311,0.42 -1.388,1.014 z"
             style="fill:#ffffff;fill-opacity:1;fill-rule:nonzero;stroke:none"
             id="path2594"
             inkscape:connector-curvature="0" />
        </g>
        <g
           id="g2596"
           transform="translate(617.2791,642.6099)">
          <path
             d="M 0,0 C 0.297,0 0.486,0.2 0.486,0.471 0.486,0.748 0.297,0.947 0,0.947 H -0.712 V 0 Z M -1.582,1.715 H 0 C 0.85,1.715 1.387,1.183 1.387,0.461 1.387,-0.261 0.85,-0.768 0,-0.768 h -0.712 v -1.101 h -0.87 z"
             style="fill:#ffffff;fill-opacity:1;fill-rule:nonzero;stroke:none"
             id="path2598"
             inkscape:connector-curvature="0" />
        </g>
        <g
           id="g2600"
           transform="translate(620.8936,641.4886)">
          <path
             d="M 0,0 C 0.563,0 0.993,0.456 0.993,1.045 0.993,1.633 0.563,2.089 0,2.089 -0.563,2.089 -0.993,1.633 -0.993,1.045 -0.993,0.456 -0.563,0 0,0 m 0,2.888 c 1.07,0 1.894,-0.804 1.894,-1.843 0,-1.04 -0.824,-1.844 -1.894,-1.844 -1.07,0 -1.894,0.804 -1.894,1.844 0,1.039 0.824,1.843 1.894,1.843"
             style="fill:#ffffff;fill-opacity:1;fill-rule:nonzero;stroke:none"
             id="path2602"
             inkscape:connector-curvature="0" />
        </g>
        <g
           id="g2604"
           transform="translate(624.8868,642.7123)">
          <path
             d="M 0,0 C 0.261,0 0.43,0.179 0.43,0.42 0.43,0.666 0.261,0.845 0,0.845 H -0.717 V 0 Z m -0.363,-0.794 h -0.354 v -1.177 h -0.87 V 1.613 H 0 c 0.814,0 1.331,-0.512 1.331,-1.203 0,-0.502 -0.276,-0.907 -0.732,-1.096 L 1.434,-1.971 H 0.399 Z"
             style="fill:#ffffff;fill-opacity:1;fill-rule:nonzero;stroke:none"
             id="path2606"
             inkscape:connector-curvature="0" />
        </g>
        <g
           id="g2608"
           transform="translate(627.4773,643.557)">
          <path
             d="M 0,0 H -1.049 V 0.768 H 1.92 V 0 H 0.87 V -2.816 H 0 Z"
             style="fill:#ffffff;fill-opacity:1;fill-rule:nonzero;stroke:none"
             id="path2610"
             inkscape:connector-curvature="0" />
        </g>
      </g>
    </g>
  </g>
</svg>
